X:21
T:This Is My Love, Do You Like Her
M:6/8
L:1/8
K:A Dorian
A3 AGE|c2B c2d|e3 edB|g3-g2e|!
def gfe|dBA G2A|B2e dBG|[1 A2B c2B:|[2 A3-A3|]!
e2a age|d2g gfg|e2a age|g2b a2g|!
eaf g2e|dBA G2A|B2e dBG|[1 A3-A3:|[2 A2B c2B|]!
